X:318
T:De qu te sirve ser guapa (CT 451)
C:Tradicional
S:Msica Tradicional Asturiana, (C) Tello & Tito. Asturies, 2001.
S:http://pagina.de/MusTradAst <telloytito@asturies.org>
N:Cancin de empleo indeterminado, transcrita en Llamo, ayuntamiento de Riosa.
A:Asturies
O:Llamo (Riosa)
Z:Cancioneru de Torner 451
M:2/4
L:1/8
Q:1/4=160
K:C
GG|: cB cB|cB dd|dc dc|B2 GA|[1 B4-|Bz GG :|[2 B3 A|BA BA|
G2 EF|BA BA|G2 EF|G4-|Gz||
W:De qu te sirve ser guapa
W:y tener el pelo negro, xunt,
W:si los mozos de esti pueblo,
W:lo que quieren ye dinero.
W:Xunt, xunt, xunt, xuntilo,
W:sombrero de Vizcaya, xunt.
W:
